X:1
T:Shalom chaverim
C:anon.
O:Israel
M:C
L:1/4
K:Dm
"^1" A,|DD/2E/2F "^2" D|FF/2G/2A "^3" A|d3c|A3 "^4" A|
w:Sha-lom cha-ve-rim sha-lom cha-ve-rim sha-lom sha-lom l'-
dA/2G/2FG|AF/2E/2DA,|D3E/2F/2|D3 z|]
w:hit ra-*ot l'-hit ra-*ot sha-lom sha-*lom

